X: 35
T: No_17_Song_Before_Distribution_of_Gifts_(a).krn
N: Derived from No_17_Song_Before_Distribution_of_Gifts_(a).krn
%%abc-version 2.0
%%abcx-abcm2ps-target-version 5.9.1 (29 Sep 2008)
%%abc-creator hum2abc beta
%%abcx-conversion-date 2019/03/15 08:36:13
%%humdrum-veritas 3901555098
%%humdrum-veritas-data 2452889852
%%linebreak <none>
%%barnumbers 0
L: 1/8
M: 2/4
K: Ab clef=bass
[K:clef=bass][M:2/4].('A,A, A, z | 
C2CB, ||  
[M:3/4]C4A,2 ||  
[M:2/4]B,4 | 
G,4- | 
G,2)z B,/A,/ | 
B,4 | 
z2.('B,A, | 
B,2F,E, | 
F,) z .('G,E, ||  
[M:3/4]G,2G,F, F, z ||  
[M:2/4]G,2G,F, ||  
[M:3/4]G,2G,G,/ z/ B,A, ||  
[M:2/4]B,2C2 | 
A,2B,2 | 
G,2z2) | 
z3.('B,/A,/ | 
B,4- | 
B,2B,2 | 
A,3E, | 
F,2E,2 | 
F,2E,2 | 
F,2F,F, | 
A,E,E,2 | 
E, z E,) z |]  



% FRACTION = 0.499634BUT SHOULD BE 0
% FRACTION = 0.499634BUT SHOULD BE 0
% FRACTION = 0.499634BUT SHOULD BE 0
% FRACTION = 0.499634BUT SHOULD BE 0
% FRACTION = 0.499634BUT SHOULD BE 0
% FRACTION = 0.499634BUT SHOULD BE 0
% FRACTION = 0.499634BUT SHOULD BE 0
